X: 44
T:Rice's Jig
M:6/8
L:1/8
R:Double Jig
K:D
fef efg|fdA GAG|Fdd Gdd|Add cde|!
~f3 efg|fdA GAG|Fdd Gdd|1Adc d2e:|2Adc d2c|!
|:B2B BAB|fgf fed|cde fec|Ace aec|!
BcB BAB|fgf fed|cde fec|1BcB B2F|2BcB B2e|]!
